X:579
T: "Fruehlingssieg"
N: Z1259
O: Europa, Mitteleuropa, Deutschland, Franken
R: Natur und Welt, Brauchtums - Lied
M: 2/4
L: 1/16
K: Bb
 | B4d4 | c4z2
F2 | G2F2G2A2 | B6
F2 | F2d2d2c2 | A2F2F2
F2 | G2A2B2c2 | F4F2
F2 | F2d2d2c2 | A2F2F2
F2 | G2A2B2c2 | F4F2z2
B4d4 | f4z2
B2 | BABcd2c2 | B4z4

